X:1
T:Our Market Day
T:Alan Gray (1855-1935)
T:Our Market Day
T:© CPDL
T:Tune "Gathering Peasecods"
T:© CPDL
T:© CPDL
T:© CPDL
T:© CPDL
T:© CPDL
T:© CPDL
C:Alan Gray (1855-1935)
Z:© CPDL
%%score [ 1 2 3 4 ]
L:1/8
Q:1/4=120
M:2/2
K:G
V:1 treble nm="Soprano" snm="S."
V:2 treble nm="Alto" snm="A."
V:3 treble-8 transpose=-12 nm="Tenor" snm="T."
V:4 bass nm="Bass" snm="B."
V:1
"^Allegro" z8[Q:1/4=140] | z8 | z8 | z8 | z8 | z8 | z8 | z8 | z8 | z8 | z8 | z8 | z8 | z8 | z8 | %15
w: |||||||||||||||
 z8 | z4 z2!mf! AA | A2 z2 A2 z2 | d2 z2 z4 | f2 z2 z2 d2 | B2 B2 e2 z2 | z2 ^c2 d2 d2 | %22
w: |I will|catch, catch,|catch,|catch the|brood- y hen,|the hen, She|
 (B^c) d2 d2 c2 | d4 z2"^cresc." dd | B2 G2 G2 (AB) | c6 cc | B2 G2 G2 (AB) | c6 c2 | %28
w: tucks * the corn a-|way I will|drive the Ker- ry _|cow which will|nev- er pay to _|keep, She|
 B2 G2 (G2 AB | c3) d e2 (dc) | B2 (cB) A3 G | G2"^pui" z2!f! d2 d2 | B2 G2 G2 (AB) | c4 c2 c2 | %34
w: yields a quart _ _|_ a day, She *|yields a _ quart a|day. I shall|tell the poor old _|cow we have|
 B2 G2 G2 (AB) | c3 c c4 | (B2 G2) (G2 AB | c3) d e>d c2 | B2 (cB A3) G | G4 z4 | z2!p! (D2 E2 F2 | %41
w: al- so got to _|think a- bout|our _ quart- * *|* er day, a- bout|our quart- * * er|day|Ah _ _|
 G6 (FG) |!<(! E2 (FG) A2!<)! B2 | c2 ^c2 d4 |!>(! (=cB) A2 B2 A2!>)! | G2)!f! d4 d2 | d4 d2 d2 | %47
w: _ _ _||||* I will|har- ness the|
 (B3 c) d2 d2 | e2 d2 c2 B2 | A6 B2 | A2 G2 G2 F2 | G6 z2 | z8 | z8 | z8 | z8 | z8 | %57
w: po- * ny And|get my bon- net|on, It|is our mar- ket|day.||||||
 z2!mf! A2"^ad lib." !>!A4 | A3 A A3"^a tempo" A | AA z2 z4 | z2 ^c2 z2 d2 | (ef)de ^c3 e | %62
w: I have|har- ness'd in the|po- ny.|But, John,|what * shall I do? My|
 e A3 d^c d2 | z8 | d4 z2 d2 | B2 G2 G2 (AB) | c6 cc | B2 G2 G2 (AB) | c6 c2 | B2 G2 G2 (AB) | %70
w: bon- net's gone a- stray||Man! What|non- sense you do _|talk, For I|can- not go to _|town I|can- not, can- not _|
 c3 d e2 (dc) | B2 (cB) A3 G | G4 z4 | z4 g4 | z2 e4 dd | d2 z2 g2 z2 | d4 z2 d2 | (d2 g2 f2 =f2 | %78
w: go to town with- *|out my _ bon- net|gay.|John!|What shall I|do? What?|what? what|shall _ _ _|
 e2 d2 c2 (BA) | G2) z2 F2 z2 | G2!f! GF (GABc | d4) d2 d2 | (B3 c) d2 d2 | e2 d2 c2 B2 | A6 B2 | %85
w: _ _ _ _ _|* I|do? I have har- * * *|* ness'd the|po- * ny I've|got my bon- net|on, It|
 A2 G2 G2 F2 | G4 z4 | z2!ff! d2 f2 ed | g2 G2 z2 d2 | e8- | e2 d2 c2 B2 | c8 | %92
w: is our mar- ket|day,|I've har- ness'd the|po- ny I've|got|_ my bon- net|on|
"^sempre" z4!ff! B4 | A8- | A4 G4 | G8 | F8 | !fermata!G8 || %98
w: It|is|_ our|mar-|ket|day.|
V:2
 z8 | z8 | z8 | z8 | z8 | z8 | z8 | z8 | z8 | z8 | z8 | z4 z2!mp! GG | F2 D2 F2 G2 | A4 B3 A | %14
w: |||||||||||I will|fetch the fat old|pig which will|
 (GA) B2 A2 G2 | F6 F2 | E2 D2 E3 D | D4 z2 AA | F2 D2 F2 G2 | A4 B3 A | (GA) B2 A2 G2 | F6 F2 | %22
w: ride * be- hind in|state, and|swell our week- ly|pay. I will|catch the brood- y|hen for she|nev- * er sits for|long, And|
 E2 D2 E3 D | D2 D4!>)!!>(! D2 |!p! !>!D4 !>!D4 | E2 (DE) F2 (EF) | G2 z2 E3 E | A2 G2 F2 E2 | %28
w: tucks the corn a-|way I will|drive, will|drive the * Ker- ry _|cow which will|nev- er pay to|
 (^D2 E2) G4 | G6 G2 | G6 F2 | G2"^piu" z2!f! D2 D2 | !>!D4 !>!D4 | !>!E4 !>!F4 | !>!G4 D2 D2 | %35
w: keep _ She|yields a|quart a|day. It shall|tell the|poor old|cow we have|
 E2 E2 F2 F2 | G3 G G4 | G8 | G2 z2 F2 z2 | G4 z4 | z2!p! (D2 E2 F2 | G6 (FG) | E2 (FG) F2 G2 | %43
w: al- so got to|think a- bout|our|quart- er|day|Ah _ _|_ _ _||
 A6 G2 |!>(! E2 G2!>)! D4 | B,2)!f! D4 D2 | B4 A2 F2 | (G3 A) B2 B2 | c2 B2 A2 G2 | D2 ^C2 D2 G2 | %50
w: ||* I will|har- ness the|po- * ny And|get my bon- net|on, It is our|
 (E2 D2 C2) D2 |!mf! D6 z2 | z8 | z8 | z8 | z8 | z8 | z8 | z4 z2!mf! A"^a tempo"A | F2 D2 F3 G | %60
w: mar- * * ket|day.|||||||I have|har- ness'd in the|
 A2 A z (B3 A) | (GA) B2 A2 G2 | F6 F2 | E D3 E3 D | D4 z4 | G4 z2 G2 | E2 C2 C2 (EF) | G4 z2 GG | %68
w: po- ny. But, _|John, * what shall I|do? My|bon- net's gone a|stray|Man! What|non- sense you do _|talk, For I|
 E2 C2 C2 (EF) | G4 =F4 | E4 (c2 BA) | (G4 F3) G | G4 z4 | z4!f! B4 | z2 A4 AA | G2 z2 G2 z2 | %76
w: can- not go to _|town with-|out my _ _|bon- * net|gay.|John!|What shall I|do? What?|
 F2 G2 A2 F2 | (G2 B2 A2 _A2 | G2 F2 E4 | D2) z2 D2 z2 | D2!f! GF (GABc | B4) A2 F2 | %82
w: shall I do? what|shall _ _ _|_ _ _|* I|do? I have har- * * *|* ness'd the|
 (G2 F2) E2 D2 | (C4 A2) G2 | F2 E2 D2 D2 | E2 D2 C2 D2 | D4 z4 | z2!ff! D2 F2 ED | G2 G,2 z2 D2 | %89
w: po- * ny I've|got _ my|bon- net on, It|is our mar- ket|day,|I've har- ness'd the|po- ny I've|
 (E4 F2 ^G2 | A2) B2 A2 ^G2 | A8 |"^sempre" z4!ff! F4 | E8- | E4 C4 | D8 | D8 | !fermata!D8 || %98
w: got _ _|_ my bon- net|on,|It|is|_ our|mar-|ket|day.|
V:3
!mp!"^Allegro""^Solo, or a few voices" d4 d2 d2 | B3 c d2 d2 | e2 d2 c2 B2 | A6 B2 | A2 G2 G2 F2 | %5
w: Har- ness the|po- ny, dear, and|get your bon- net|on, it|is our mark- et|
 G8 |"^Full with a little more instance"!mf! d4 d2 d2 | B3 c d2 d2 | e2 d2 c2 B2 | A6 B2 | %10
w: day.|Har- ness the|po- ny, dear, and|get your bon- net|on, It|
 A2 G2 G2 F2 | G4 z2!p! G2 | d2 z2 d2 z2 | ^c2 z2 A2 z2 | B3 B ^c2 c2 | (^c4 d2) c2 | B4 z2 ^c2 | %17
w: is our mark- et|day. The|fat, old,|pig, will|ride be- hind in|state, _ and|swell, and|
 .A2 .F2 .G2 .E2 | A2 z2 d2 z2 | z2 d2 B2 B2 | e2 z2 z2 e2 | A2 ^A2 B4- | B2 =A2 B2 A2 | F4 z4 | %24
w: swell our week- ly|pay. Catch|the brood- y|hen, the|hen she tucks|_ the corn a-|way|
!p! !>!B4 !>!B4 | A2 (AB) c2 (Bc) | d2 z2 c3 c | e2 d2 c2 B2 | (A2 B2) (e2 d2) | c6 c2 | d6 c2 | %31
w: I will|drive the * Ker- ry _|cow which will|nev- er pay to|keep, _ She _|yields a|quart a|
 B2"^cresc." d4 d2 | !>!d4 !>!B4 | !>!A4 !>!d4 | !>!G4 B2 B2 | A2 A2 d2 d2 | G3 G G4 | e8 | %38
w: day. You shall|tell the|poor old|cow we have|al- so got to|think a- bout|our|
 d2 z2 d2 z2 | B2!f! d4 d2 | d4 d2 d2 | B3 c d2 d2 | e2 d2 c2 B2 | A6 B2 | A2 G2 G2 F2 | G8 | %46
w: quart- er|day Har- ness,|har- ness the|po- ny, dear, and|get your bon- net|on, It|is our mark- et|day|
!f! d4 A2 d2 | (d3 c) B2 G2 | e6 e2 | f2 e2 d2 d2 | c2 G2 A2 A2 | B6!mf! B^c | d6 (ed) | %53
w: Har- ness the|po- * ny And|get your|bon- net on, It|is our mar- ket|day. You will|take our *|
 ^c2 (Bc) d2 ef | gfed ^c4- | c2 A2 (d4- | d^c) B2 c3 d |"^ad lib." d8 | z8 | z8 | z8 | z8 | z8 | %63
w: don- key * Ned, for he's|no- thing much to do,|_ and far|_ _ too much to|say||||||
!f! A4 A3 A | z4!p! D D3 | z4 D D3 | z4!<)!!<(! D4- |!>(! D2!>)! D2 z4 | z4!p!"^cresc." d4- | %69
w: Har- ness the|wo- man,|wo- man,|wo-|* man,|wo-|
 d4 d2 z2 |!f! d8- |"^cresc." d4!<)!!<(! d4 |!ff! g2 G2 z2!f!!f! d2 | B2 G2 G2 (AB) | c6 cc | %75
w: * man|wo-|* man,|wo- man, What|mat- ters that to _|me? You would|
 B2 G2 G2 (AB) | c6 c2 | B2 G2 G2 (AB) | c3 d e2 (dc) | B2 (cB) A3 G | G4 z4 |!f! d4 (3d2 d2 d2 | %82
w: drive a man to _|drink, We|sure- ly, sure- ly _|must a- way, we *|sure- ly _ must a|way.|Dear, har- ness the|
 g4 G2 z2 | (G4 A2) A2 | B2 ^c2 d2 B2 | =c2 d2 e2 d2 | B2!ff! (GF GABc | d4) d2 d2 | B3 c d2 d2 | %89
w: po- ny|get _ your|bon- net on, It|is our mar- ket|day, Har- * * * * *|* ness the|po- ny, Dear, and|
 e2 d2 c2 B2 | c2 d2 e2 =f2 | e8 |"^sempre" z4!ff! ^d4 | e8- | e4 G4 | B8 | A8 | !fermata!B8 || %98
w: get your bon- net,|get your bon- net|on,|It|is|_ our|mar-|ket|day.|
V:4
 z8 | z8 | z8 | z8 | z8 | z8 |!mf! B,4 B,2 B,2 | G,3 A, F,2 G,2 | E,6 G,2 | F,2 E,2 F,2 G,2 | %10
w: ||||||Har- ness the|po- ny, dear, and|get your|bon- net on, It|
 C,2 B,,2 D,3 D, | G,,6 z2 | z4!p! B,2 z2 | A,2 z2 F,2 z2 | G,2 z2 E,2 z2 | A,3 A, B,2 A,2 | %16
w: is our mark- et|day.|The|fat, old,|pig will|ride be- hind in|
 G,4 z2 A,2 | .F,2 .D,2 .B,,2 .^C,2 | D,2 z2 z4 | z4 G,2 z2 | z2 E,2 ^C,2 z2 | %21
w: state, and|swell our week- ly|pay.|Catch|the hen,|
 z2 D,2 B,,2 (B,,A,,) | G,,2 F,,2 G,,2 A,,2 | D,4 z4 |!p! !>!G,4 !>!G,4 | G,2 (F,G,) A,2 (G,A,) | %26
w: she tucks, she *|tucks the corn a-|way|I will|drive the * Ker- ry _|
 B,2 z2 C3 C | C2 B,2 A,2 G,2 | (F,2 G,2) =F,4 | E,6 A,2 | D,6 D,2 | G,2"^cresc." D,4 D,2 | %32
w: cow which will|nev- er pay to|keep, _ She|yields a|quart a|day. You shall|
 !>!D,4 !>!D,4 | !>!D,4 !>!D,4 | !>!D,4 D,2 D,2 | D,2 D,2 D,2 D,2 | E,3 G, G,4 | C8 | %38
w: tell the|poor old|cow we have|al- so got to|think a- bout|our|
 D2 z2 D,2 z2 | G,4 z4 |!f! B,4 B,2 B,2 | G,3 A, B,2 B,2 | C2 B,2 A,2 G,2 | F,6 G,2 | %44
w: quart- er|day|Har- ness the|po- ny, dear, and|get your bon- net|on, It|
 C,2 E,2 D,2 D,2 | G,,8 |!f! (G,,2 G,2) F,2 D,2 | G,4 G,,2 G,2 | C,6 C,2 | D,2 E,2 F,2 G,2 | %50
w: is our mark- et|day|Har- * ness the|po- ny And|get your|bon- net on, It|
 C,2 B,,2 A,,2 D,2 | G,,6!mf! G,G, | F,2 D,2 F,2 G,2 | A,4 B,3 A, | (G,A,) B,2 A,2 G,2 | F,6 F,2 | %56
w: is our mar- ket|day. You will|take our don- key|Ned, for he's|no- * thing much to|do, and|
 E,2 D,2 E,3 D, |"^ad lib." D,8 | z8 | z8 | z8 | z8 | z8 |!f! G,4 A,3 A, | z4!p! D, D,3 | %65
w: far too much to|say||||||Har- ness the|wo- man,|
 z4 D, D,3 | z4!<)!!<(! D,4- |!>(! D,2 D,2!>)! z4 | z4!p!"^cresc." D,4- | D,4 D,2 z2 |!f! D,8- | %71
w: wo- man,|wo-|* man,|wo-|* man|wo-|
"^cresc." D,4!<)!!<(! D,4 |!ff! G,2 G,,2 z2 D2 | B,2 G,2 G,2 (A,B,) | C2 A,A, G,2 F,2 | %75
w: * man,|wo- man, What|mat- ters that to _|me? You would drive, would|
 G,3 G, E,3 E, | A,2 G,2 F,2 C2 | B,2 G,2 G,2 (A,B,) | C6 C,2 | D,2 z2 D,2 z2 | G,,4 z4 | %81
w: drive, would drive a|man to drink, We|sure- ly, sure- ly _|must, we|must a|way.|
!f! (G,,2 G,2) F,2 D,2 | E,2 D,2 C,2 B,,2 | C,6 C,2 | D,2 E,2 F,2 G,2 | C2 B,2 A,2 D,2 | %86
w: Har- * ness the|po- ny, Dear, and|get your|bon- net on, It|is our mar- ket|
 G,2!ff! (G,,F,, G,,A,,B,,C, | D,4) D,2 D,2 | B,,3 C, D,2 D,2 | E,2 D,2 C,2 B,,2 | A,,8- | A,,8 | %92
w: day, Har- * * * * *|* ness the|po- ny, Dear, and|get your bon- net|on,|_|
"^sempre" z4!ff! B,,4 | C,8- | C,4 E,4 | D,8 | D,8 | !fermata!G,,8 || %98
w: It|is|_ our|mar-|ket|day.|

